TileServer und Tiles/svg/8/54_28.svg

<?xml version='1.0' encoding='UTF-8' standalone='no'?>
<svg viewBox="0 0 497 279" width="497pt" height="279pt" xmlns="http://www.w3.org/2000/svg" xmlns:xlink="http://www.w3.org/1999/xlink">
 <defs overflow="visible" style="stroke:none;">
  <path id="glyph0-6" d="M 0.296875 0 L 2.0625 -8.359375 L 3.046875 -8.359375 L 2.328125 -5.03125 C 2.203125 -4.445312 2.09375 -3.992188 2 -3.671875 C 1.914062 -3.359375 1.851562 -3.148438 1.8125 -3.046875 L 1.84375 -3.046875 L 4.625 -5.890625 L 5.78125 -5.890625 L 3.25 -3.359375 L 4.8125 0 L 3.75 0 L 2.515625 -2.765625 L 1.71875 -2.140625 L 1.28125 0 Z M 0.296875 0 "/>
  <path id="glyph0-5" d="M -0.53125 2.640625 C -0.664062 2.640625 -0.789062 2.628906 -0.90625 2.609375 C -1.03125 2.585938 -1.140625 2.5625 -1.234375 2.53125 L -1.234375 1.71875 C -1.128906 1.75 -1.03125 1.773438 -0.9375 1.796875 C -0.84375 1.828125 -0.734375 1.84375 -0.609375 1.84375 C -0.390625 1.84375 -0.195312 1.75 -0.03125 1.5625 C 0.125 1.375 0.253906 1.046875 0.359375 0.578125 L 1.5625 -5.15625 L 0.53125 -5.15625 L 0.609375 -5.5625 L 1.71875 -5.921875 L 1.84375 -6.453125 C 1.957031 -6.960938 2.097656 -7.359375 2.265625 -7.640625 C 2.441406 -7.921875 2.65625 -8.117188 2.90625 -8.234375 C 3.164062 -8.359375 3.476562 -8.421875 3.84375 -8.421875 C 4.019531 -8.421875 4.207031 -8.398438 4.40625 -8.359375 C 4.601562 -8.316406 4.757812 -8.265625 4.875 -8.203125 L 4.625 -7.46875 C 4.519531 -7.507812 4.40625 -7.546875 4.28125 -7.578125 C 4.164062 -7.609375 4.035156 -7.625 3.890625 -7.625 C 3.597656 -7.625 3.367188 -7.539062 3.203125 -7.375 C 3.035156 -7.21875 2.90625 -6.910156 2.8125 -6.453125 L 2.671875 -5.890625 L 5.21875 -5.890625 L 5.34375 -6.46875 C 5.457031 -6.96875 5.597656 -7.359375 5.765625 -7.640625 C 5.941406 -7.921875 6.160156 -8.117188 6.421875 -8.234375 C 6.679688 -8.359375 6.988281 -8.421875 7.34375 -8.421875 C 7.539062 -8.421875 7.734375 -8.398438 7.921875 -8.359375 C 8.117188 -8.316406 8.273438 -8.265625 8.390625 -8.203125 L 8.125 -7.46875 C 8.019531 -7.507812 7.90625 -7.546875 7.78125 -7.578125 C 7.664062 -7.609375 7.539062 -7.625 7.40625 -7.625 C 7.113281 -7.625 6.882812 -7.539062 6.71875 -7.375 C 6.550781 -7.21875 6.414062 -6.910156 6.3125 -6.453125 L 6.1875 -5.890625 L 7.453125 -5.890625 L 7.296875 -5.15625 L 6.03125 -5.15625 L 4.8125 0.6875 C 4.675781 1.300781 4.46875 1.78125 4.1875 2.125 C 3.914062 2.46875 3.515625 2.640625 2.984375 2.640625 C 2.703125 2.640625 2.46875 2.601562 2.28125 2.53125 L 2.28125 1.71875 C 2.375 1.75 2.472656 1.773438 2.578125 1.796875 C 2.679688 1.828125 2.789062 1.84375 2.90625 1.84375 C 3.125 1.84375 3.3125 1.75 3.46875 1.5625 C 3.632812 1.375 3.765625 1.046875 3.859375 0.578125 L 5.078125 -5.15625 L 2.53125 -5.15625 L 1.296875 0.6875 C 1.160156 1.300781 0.953125 1.78125 0.671875 2.125 C 0.398438 2.46875 0 2.640625 -0.53125 2.640625 Z M 9.359375 -6.875 C 9.222656 -6.875 9.101562 -6.921875 9 -7.015625 C 8.894531 -7.109375 8.84375 -7.234375 8.84375 -7.390625 C 8.84375 -7.578125 8.898438 -7.738281 9.015625 -7.875 C 9.128906 -8.019531 9.289062 -8.09375 9.5 -8.09375 C 9.820312 -8.09375 9.984375 -7.925781 9.984375 -7.59375 C 9.984375 -7.375 9.914062 -7.195312 9.78125 -7.0625 C 9.65625 -6.9375 9.515625 -6.875 9.359375 -6.875 Z M 7.328125 0 L 8.59375 -5.890625 L 9.5625 -5.890625 L 8.296875 0 Z M 7.328125 0 "/>
  <path id="glyph0-4" d="M 2.078125 0.109375 C 1.628906 0.109375 1.269531 -0.015625 1 -0.265625 C 0.738281 -0.515625 0.609375 -0.878906 0.609375 -1.359375 C 0.609375 -1.523438 0.617188 -1.679688 0.640625 -1.828125 C 0.671875 -1.984375 0.695312 -2.140625 0.71875 -2.296875 L 1.5 -5.890625 L 2.46875 -5.890625 L 1.6875 -2.1875 C 1.613281 -1.875 1.578125 -1.628906 1.578125 -1.453125 C 1.578125 -1.210938 1.640625 -1.023438 1.765625 -0.890625 C 1.890625 -0.753906 2.085938 -0.6875 2.359375 -0.6875 C 2.609375 -0.6875 2.875 -0.773438 3.15625 -0.953125 C 3.445312 -1.128906 3.71875 -1.410156 3.96875 -1.796875 C 4.21875 -2.191406 4.410156 -2.710938 4.546875 -3.359375 L 5.09375 -5.890625 L 6.046875 -5.890625 L 4.796875 0 L 4 0 L 4.125 -1.09375 L 4.0625 -1.09375 C 3.925781 -0.914062 3.765625 -0.734375 3.578125 -0.546875 C 3.390625 -0.359375 3.171875 -0.203125 2.921875 -0.078125 C 2.679688 0.046875 2.398438 0.109375 2.078125 0.109375 Z M 2.078125 0.109375 "/>
  <path id="glyph0-3" d="M 2.03125 0.109375 C 1.632812 0.109375 1.300781 0.015625 1.03125 -0.171875 C 0.757812 -0.367188 0.625 -0.703125 0.625 -1.171875 C 0.625 -1.410156 0.65625 -1.671875 0.71875 -1.953125 L 1.390625 -5.15625 L 0.484375 -5.15625 L 0.578125 -5.59375 L 1.5625 -6.015625 L 2.25 -7.234375 L 2.8125 -7.234375 L 2.515625 -5.890625 L 4 -5.890625 L 3.84375 -5.15625 L 2.375 -5.15625 L 1.6875 -1.953125 C 1.664062 -1.847656 1.644531 -1.734375 1.625 -1.609375 C 1.601562 -1.492188 1.59375 -1.382812 1.59375 -1.28125 C 1.59375 -1.113281 1.640625 -0.972656 1.734375 -0.859375 C 1.828125 -0.742188 1.972656 -0.6875 2.171875 -0.6875 C 2.304688 -0.6875 2.4375 -0.695312 2.5625 -0.71875 C 2.6875 -0.75 2.816406 -0.785156 2.953125 -0.828125 L 2.953125 -0.09375 C 2.867188 -0.0390625 2.734375 0.00390625 2.546875 0.046875 C 2.367188 0.0859375 2.195312 0.109375 2.03125 0.109375 Z M 2.03125 0.109375 "/>
  <path id="glyph0-2" d="M 2.34375 -6.875 C 2.1875 -6.875 2.054688 -6.921875 1.953125 -7.015625 C 1.859375 -7.109375 1.8125 -7.234375 1.8125 -7.390625 C 1.8125 -7.578125 1.867188 -7.738281 1.984375 -7.875 C 2.097656 -8.019531 2.257812 -8.09375 2.46875 -8.09375 C 2.800781 -8.09375 2.96875 -7.925781 2.96875 -7.59375 C 2.96875 -7.375 2.898438 -7.195312 2.765625 -7.0625 C 2.640625 -6.9375 2.5 -6.875 2.34375 -6.875 Z M 0.3125 0 L 1.5625 -5.890625 L 2.53125 -5.890625 L 1.28125 0 Z M 0.3125 0 "/>
  <path id="glyph0-1" d="M 0.453125 0 L 2.109375 -7.859375 L 3.890625 -7.859375 C 4.734375 -7.859375 5.332031 -7.664062 5.6875 -7.28125 C 6.050781 -6.90625 6.234375 -6.414062 6.234375 -5.8125 C 6.234375 -4.925781 5.941406 -4.242188 5.359375 -3.765625 C 4.773438 -3.296875 3.914062 -3.0625 2.78125 -3.0625 L 2.078125 -3.0625 L 1.4375 0 Z M 2.25 -3.890625 L 2.9375 -3.890625 C 3.644531 -3.890625 4.203125 -4.039062 4.609375 -4.34375 C 5.023438 -4.65625 5.234375 -5.132812 5.234375 -5.78125 C 5.234375 -6.207031 5.109375 -6.515625 4.859375 -6.703125 C 4.617188 -6.898438 4.25 -7 3.75 -7 L 2.921875 -7 Z M 2.25 -3.890625 "/>
  <path id="glyph0-0" d="M 1.03125 0 L 1.03125 -7.859375 L 5.5625 -7.859375 L 5.5625 0 Z M 1.59375 -0.5625 L 5 -0.5625 L 5 -7.296875 L 1.59375 -7.296875 Z M 1.59375 -0.5625 "/>
 </defs>
 <image width="497" height="279" xlink:href="svg/8/54_28.jpg"/>
 <g>
  <path style="fill:none;stroke-width:3;stroke-linecap:butt;stroke-linejoin:round;stroke:rgb(100%,100%,100%);stroke-opacity:0.6;stroke-miterlimit:10;" transform=" rotate(  340 201.83 195.461) " d="M 184.6875 198.460938 L 186.34375 190.601562 L 188.125 190.601562 C 188.96875 190.601562 189.566406 190.796875 189.921875 191.179688 C 190.285156 191.554688 190.46875 192.046875 190.46875 192.648438 C 190.46875 193.535156 190.175781 194.21875 189.59375 194.695312 C 189.007812 195.164062 188.148438 195.398438 187.015625 195.398438 L 186.3125 195.398438 L 185.671875 198.460938 Z M 186.484375 194.570312 L 187.171875 194.570312 C 187.878906 194.570312 188.4375 194.421875 188.84375 194.117188 C 189.257812 193.804688 189.46875 193.328125 189.46875 192.679688 C 189.46875 192.253906 189.34375 191.945312 189.09375 191.757812 C 188.851562 191.5625 188.484375 191.460938 187.984375 191.460938 L 187.15625 191.460938 Z M 186.484375 194.570312 "/>
  <path style="fill:none;stroke-width:3;stroke-linecap:butt;stroke-linejoin:round;stroke:rgb(100%,100%,100%);stroke-opacity:0.6;stroke-miterlimit:10;" transform=" rotate(  340 201.83 195.461) " d="M 192.816406 191.585938 C 192.660156 191.585938 192.527344 191.539062 192.425781 191.445312 C 192.332031 191.351562 192.285156 191.226562 192.285156 191.070312 C 192.285156 190.882812 192.339844 190.722656 192.457031 190.585938 C 192.570312 190.441406 192.730469 190.367188 192.941406 190.367188 C 193.273438 190.367188 193.441406 190.535156 193.441406 190.867188 C 193.441406 191.085938 193.371094 191.265625 193.238281 191.398438 C 193.113281 191.523438 192.972656 191.585938 192.816406 191.585938 Z M 190.785156 198.460938 L 192.035156 192.570312 L 193.003906 192.570312 L 191.753906 198.460938 Z M 190.785156 198.460938 "/>
  <path style="fill:none;stroke-width:3;stroke-linecap:butt;stroke-linejoin:round;stroke:rgb(100%,100%,100%);stroke-opacity:0.6;stroke-miterlimit:10;" transform=" rotate(  340 201.83 195.461) " d="M 195.34375 198.570312 C 194.945312 198.570312 194.613281 198.476562 194.34375 198.289062 C 194.070312 198.09375 193.9375 197.757812 193.9375 197.289062 C 193.9375 197.050781 193.96875 196.789062 194.03125 196.507812 L 194.703125 193.304688 L 193.796875 193.304688 L 193.890625 192.867188 L 194.875 192.445312 L 195.5625 191.226562 L 196.125 191.226562 L 195.828125 192.570312 L 197.3125 192.570312 L 197.15625 193.304688 L 195.6875 193.304688 L 195 196.507812 C 194.976562 196.613281 194.957031 196.726562 194.9375 196.851562 C 194.914062 196.96875 194.90625 197.078125 194.90625 197.179688 C 194.90625 197.347656 194.953125 197.488281 195.046875 197.601562 C 195.140625 197.71875 195.285156 197.773438 195.484375 197.773438 C 195.617188 197.773438 195.75 197.765625 195.875 197.742188 C 196 197.710938 196.128906 197.675781 196.265625 197.632812 L 196.265625 198.367188 C 196.179688 198.421875 196.046875 198.464844 195.859375 198.507812 C 195.679688 198.546875 195.507812 198.570312 195.34375 198.570312 Z M 195.34375 198.570312 "/>
  <path style="fill:none;stroke-width:3;stroke-linecap:butt;stroke-linejoin:round;stroke:rgb(100%,100%,100%);stroke-opacity:0.6;stroke-miterlimit:10;" transform=" rotate(  340 201.83 195.461) " d="M 199.042969 198.570312 C 198.59375 198.570312 198.234375 198.445312 197.964844 198.195312 C 197.703125 197.945312 197.574219 197.582031 197.574219 197.101562 C 197.574219 196.9375 197.582031 196.78125 197.605469 196.632812 C 197.636719 196.476562 197.660156 196.320312 197.683594 196.164062 L 198.464844 192.570312 L 199.433594 192.570312 L 198.652344 196.273438 C 198.578125 196.585938 198.542969 196.832031 198.542969 197.007812 C 198.542969 197.25 198.605469 197.4375 198.730469 197.570312 C 198.855469 197.707031 199.050781 197.773438 199.324219 197.773438 C 199.574219 197.773438 199.839844 197.6875 200.121094 197.507812 C 200.410156 197.332031 200.683594 197.050781 200.933594 196.664062 C 201.183594 196.269531 201.375 195.75 201.511719 195.101562 L 202.058594 192.570312 L 203.011719 192.570312 L 201.761719 198.460938 L 200.964844 198.460938 L 201.089844 197.367188 L 201.027344 197.367188 C 200.890625 197.546875 200.730469 197.726562 200.542969 197.914062 C 200.355469 198.101562 200.136719 198.257812 199.886719 198.382812 C 199.644531 198.507812 199.363281 198.570312 199.042969 198.570312 Z M 199.042969 198.570312 "/>
  <path style="fill:none;stroke-width:3;stroke-linecap:butt;stroke-linejoin:round;stroke:rgb(100%,100%,100%);stroke-opacity:0.6;stroke-miterlimit:10;" transform=" rotate(  340 201.83 195.461) " d="M 202.800781 201.101562 C 202.667969 201.101562 202.542969 201.089844 202.425781 201.070312 C 202.300781 201.046875 202.191406 201.023438 202.097656 200.992188 L 202.097656 200.179688 C 202.203125 200.210938 202.300781 200.234375 202.394531 200.257812 C 202.488281 200.289062 202.597656 200.304688 202.722656 200.304688 C 202.941406 200.304688 203.136719 200.210938 203.300781 200.023438 C 203.457031 199.835938 203.585938 199.507812 203.691406 199.039062 L 204.894531 193.304688 L 203.863281 193.304688 L 203.941406 192.898438 L 205.050781 192.539062 L 205.175781 192.007812 C 205.289062 191.5 205.429688 191.101562 205.597656 190.820312 C 205.773438 190.539062 205.988281 190.34375 206.238281 190.226562 C 206.496094 190.101562 206.808594 190.039062 207.175781 190.039062 C 207.351562 190.039062 207.539062 190.0625 207.738281 190.101562 C 207.933594 190.144531 208.089844 190.195312 208.207031 190.257812 L 207.957031 190.992188 C 207.851562 190.953125 207.738281 190.914062 207.613281 190.882812 C 207.496094 190.851562 207.367188 190.835938 207.222656 190.835938 C 206.929688 190.835938 206.699219 190.921875 206.535156 191.085938 C 206.367188 191.242188 206.238281 191.550781 206.144531 192.007812 L 206.003906 192.570312 L 208.550781 192.570312 L 208.675781 191.992188 C 208.789062 191.492188 208.929688 191.101562 209.097656 190.820312 C 209.273438 190.539062 209.492188 190.34375 209.753906 190.226562 C 210.011719 190.101562 210.320312 190.039062 210.675781 190.039062 C 210.871094 190.039062 211.066406 190.0625 211.253906 190.101562 C 211.449219 190.144531 211.605469 190.195312 211.722656 190.257812 L 211.457031 190.992188 C 211.351562 190.953125 211.238281 190.914062 211.113281 190.882812 C 210.996094 190.851562 210.871094 190.835938 210.738281 190.835938 C 210.445312 190.835938 210.214844 190.921875 210.050781 191.085938 C 209.882812 191.242188 209.746094 191.550781 209.644531 192.007812 L 209.519531 192.570312 L 210.785156 192.570312 L 210.628906 193.304688 L 209.363281 193.304688 L 208.144531 199.148438 C 208.007812 199.761719 207.800781 200.242188 207.519531 200.585938 C 207.246094 200.929688 206.847656 201.101562 206.316406 201.101562 C 206.035156 201.101562 205.800781 201.0625 205.613281 200.992188 L 205.613281 200.179688 C 205.707031 200.210938 205.804688 200.234375 205.910156 200.257812 C 206.011719 200.289062 206.121094 200.304688 206.238281 200.304688 C 206.457031 200.304688 206.644531 200.210938 206.800781 200.023438 C 206.964844 199.835938 207.097656 199.507812 207.191406 199.039062 L 208.410156 193.304688 L 205.863281 193.304688 L 204.628906 199.148438 C 204.492188 199.761719 204.285156 200.242188 204.003906 200.585938 C 203.730469 200.929688 203.332031 201.101562 202.800781 201.101562 Z M 212.691406 191.585938 C 212.554688 191.585938 212.433594 191.539062 212.332031 191.445312 C 212.226562 191.351562 212.175781 191.226562 212.175781 191.070312 C 212.175781 190.882812 212.230469 190.722656 212.347656 190.585938 C 212.460938 190.441406 212.621094 190.367188 212.832031 190.367188 C 213.152344 190.367188 213.316406 190.535156 213.316406 190.867188 C 213.316406 191.085938 213.246094 191.265625 213.113281 191.398438 C 212.988281 191.523438 212.847656 191.585938 212.691406 191.585938 Z M 210.660156 198.460938 L 211.925781 192.570312 L 212.894531 192.570312 L 211.628906 198.460938 Z M 210.660156 198.460938 "/>
  <path style="fill:none;stroke-width:3;stroke-linecap:butt;stroke-linejoin:round;stroke:rgb(100%,100%,100%);stroke-opacity:0.6;stroke-miterlimit:10;" transform=" rotate(  340 201.83 195.461) " d="M 213.484375 198.460938 L 215.25 190.101562 L 216.234375 190.101562 L 215.515625 193.429688 C 215.390625 194.015625 215.28125 194.46875 215.1875 194.789062 C 215.101562 195.101562 215.039062 195.3125 215 195.414062 L 215.03125 195.414062 L 217.8125 192.570312 L 218.96875 192.570312 L 216.4375 195.101562 L 218 198.460938 L 216.9375 198.460938 L 215.703125 195.695312 L 214.90625 196.320312 L 214.46875 198.460938 Z M 213.484375 198.460938 "/>
  <g style="fill:rgb(49.803922%,34.117647%,49.411765%);fill-opacity:1;" transform=" rotate(  340 201.83 195.461) ">
   <use xlink:href="#glyph0-1" y="198.460799" x="184.23594"/>
   <use xlink:href="#glyph0-2" y="198.460799" x="190.47294"/>
   <use xlink:href="#glyph0-3" y="198.460799" x="193.31094"/>
   <use xlink:href="#glyph0-4" y="198.460799" x="196.96294"/>
   <use xlink:href="#glyph0-5" y="198.460799" x="203.33194"/>
   <use xlink:href="#glyph0-6" y="198.460799" x="213.18794"/>
  </g>
 </g>
</svg>

<svg xmlns="http://www.w3.org/2000/svg" xmlns:xlink="http://www.w3.org/1999/xlink" viewBox="0 0 497 279"> <defs overflow="visible" style="stroke:none">  <path id="f" d="m.3 0 1.8-8.4H3L2.2-5a20 20 0 0 1-.4 2l2.8-3h1.2L3.3-3.4 4.8 0h-1L2.5-2.8l-.8.8-.4 2Zm0 0"/>  <path id="e" d="M-.5 2.6a2.3 2.3 0 0 1-.7 0v-1l.2.2h.4c.2 0 .4 0 .6-.2l.4-1 1.2-5.8h-1v-.4l1.1-.3.1-.6.5-1.1c.1-.4.4-.5.6-.6.3-.2.6-.2 1.1-.2h.3l.7.2-.4.7h-.3l-.4-.2c-.3.1-.5.1-.7.3-.2.2-.3.5-.4 1l-.1.4h2.5l.1-.5.5-1.1c.1-.4.4-.5.6-.6.3-.2.6-.2 1-.2h.4l.6.2-.4.7h-.2l-.4-.2c-.3.1-.4.1-.7.3l-.4 1-.1.4h1.3l-.2.8H6L4.8.7c-.1.6-.3 1-.6 1.3-.3.5-.7.6-1.2.6a2 2 0 0 1-.7 0v-1l.3.2h.3c.2 0 .4 0 .6-.2l.4-1L5-5.2H2.5L1.3.7c-.1.6-.3 1-.6 1.3-.3.5-.7.6-1.2.6Zm9.9-9.5L9-7l-.2-.4.2-.5.5-.1c.3 0 .5.1.5.4 0 .2 0 .4-.2.6-.1.1-.3.1-.4.1ZM7.4 0l1.1-5.9h1.1L8.3 0Zm-.1 0"/>  <path id="d" d="M2 .1c-.3 0-.6-.1-1-.4-.3-.2-.4-.6-.4-1a3 3 0 0 1 0-.6l.1-.4.8-3.6h1l-.8 3.7-.1.7c0 .3 0 .5.2.6l.6.2c.2 0 .5 0 .8-.3l.8-.8.5-1.6.6-2.5H6L4.7 0H4l.1-1c-.2 0-.3.2-.5.4l-.7.5-.8.2Zm0 0"/>  <path id="c" d="M2 .1c-.4 0-.7 0-1-.3-.2-.2-.4-.5-.4-1L.7-2l.7-3.2h-1l.3-.4.9-.4.6-1.2h.7L2.5-6H4l-.2.8H2.4L1.7-2v.4l-.2.3.2.4c.1.2.3.2.5.2h.4L3-.8v.7l-.5.1-.5.1Zm0 0"/>  <path id="b" d="M2.3-6.9 2-7l-.2-.4c0-.2 0-.3.2-.5l.5-.1c.3 0 .5.1.5.4l-.2.6c-.2.1-.3.1-.5.1ZM.3 0l1.3-5.9h1L1.2 0Zm0 0"/>  <path id="a" d="M.5 0 2-7.9h2c.7 0 1.3.2 1.7.6.3.4.5.9.5 1.5 0 .8-.2 1.6-.8 2-.6.5-1.5.8-2.6.8H2l-.6 3Zm1.8-3.9h.6c.7 0 1.3-.1 1.7-.4.4-.4.6-.8.6-1.5 0-.4 0-.7-.2-.9-.4-.2-.8-.3-1.3-.3H3Zm0 0"/>  <path d="M1 0v-7.9h4.6V0Zm.6-.6H5v-6.7H1.6Zm0 0"/> </defs> <image xlink:href="svg/8/54_28.jpg" width="497" height="279"/> <path d="m184.7 198.5 1.6-7.9h1.8c.9 0 1.5.2 1.9.6.3.4.5.8.5 1.4 0 1-.3 1.6-1 2.1-.5.5-1.3.7-2.5.7h-.7l-.6 3Zm1.8-4h.7c.7.1 1.2.1 1.6-.3.5-.4.7-.9.7-1.5 0-.4-.2-.8-.5-1l-1-.1h-.8Zm6.3-2.9c-.1 0-.3 0-.4-.2l-.1-.3c0-.2 0-.4.2-.5 0-.2.2-.2.4-.2.4 0 .5.1.5.5 0 .1 0 .4-.2.5l-.4.2Zm-2 6.9 1.2-6h1l-1.2 6.1Zm4.5.1c-.3 0-.7-.1-1-.3-.2-.3-.3-.5-.3-1v-.8l.7-3.2h-.9v-.4l1.1-.5.8-1.2h.3l-.2 1.4h1.5l-.1.7h-1.5l-.7 3.2v1.1l.5.2h.4l.4-.3v.9l-.4.1h-.6Zm3.7 0c-.4 0-.8-.2-1-.4-.3-.3-.4-.6-.4-1.1a3 3 0 0 1 0-.5v-.4l1-3.6h.9l-.9 3.7-.1.7.2.6.6.2c.3 0 .5-.1.8-.3.3-.2.6-.4.9-.8.2-.4.4-1 .5-1.7l.6-2.4h.9l-1.3 5.9h-.7v-1.1l-.5.5-.5.5-1 .2Zm3.8 2.5a2.3 2.3 0 0 1-.7-.1v-.8h.3l.3.2c.3-.1.4-.1.6-.4.2-.2.3-.5.4-1l1.2-5.7h-1v-.4l1.2-.4v-.5l.6-1.2.5-.6 1-.2.5.1.5.2-.2.7-.4-.1h-.4c-.2-.1-.5-.1-.7.1l-.4 1-.1.5h2.6v-.5l.6-1.2c.1-.3.3-.5.6-.6l.9-.2.6.1.4.2-.2.7-.5-.1h-.3c-.3-.1-.5-.1-.6.1-.2.2-.4.6-.5 1v.5h1.1l-.1.8h-1.2l-1.4 5.8c.1.7-.2 1.1-.5 1.5-.3.3-.7.4-1.2.4a2 2 0 0 1-.7 0v-.8h.4l.2.2c.3-.1.4-.1.6-.4.2-.2.3-.5.4-1l1.2-5.7H206l-1.4 5.8c-.1.7-.3 1.1-.6 1.5-.3.3-.7.4-1.2.4Zm9.9-9.5c-.1 0-.3 0-.4-.2l-.1-.3.1-.5c.2-.2.3-.2.5-.2.4 0 .5.1.5.5 0 .1 0 .4-.2.5l-.4.2Zm-2 6.9 1.2-6h1.1l-1.4 6.1Zm2.8 0 1.8-8.5h1l-.9 3.4a20 20 0 0 1-.4 2l2.8-2.8h1.2l-2.6 2.4 1.6 3.5h-1l-1.4-2.8-.7.6-.4 2.2Zm0 0" style="fill:none;stroke-width:3;stroke-linecap:butt;stroke-linejoin:round;stroke:#fff;stroke-opacity:.6;stroke-miterlimit:10" transform=" rotate(  340 201.83 195.461) "/> <g style="fill:#7f577e;fill-opacity:1" transform=" rotate(  340 201.83 195.461) ">  <use xlink:href="#a" x="184.2" y="198.5"/>  <use xlink:href="#b" x="190.5" y="198.5"/>  <use xlink:href="#c" x="193.3" y="198.5"/>  <use xlink:href="#d" x="197" y="198.5"/>  <use xlink:href="#e" x="203.3" y="198.5"/>  <use xlink:href="#f" x="213.2" y="198.5"/> </g></svg>
